src/images/collections/media.svg

<svg width="256" height="256" viewBox="0 0 256 256" fill="none" xmlns="http://www.w3.org/2000/svg">
<path fill-rule="evenodd" clip-rule="evenodd" d="M32 72C32 69.7909 33.7909 68 36 68H220C222.209 68 224 69.7909 224 72V82H32V72Z" fill="white" stroke="black"/>
<circle cx="40" cy="75" r="2.5" fill="#3740FF" stroke="black"/>
<circle cx="50" cy="75" r="2.5" fill="#2979FF" stroke="black"/>
<circle cx="60" cy="75" r="2.5" fill="#3FC4FF" stroke="black"/>
<path d="M224 188V82H32V188" stroke="black"/>
<mask id="path-7-inside-1" fill="white">
<path fill-rule="evenodd" clip-rule="evenodd" d="M134 93H184V123H134V93ZM72 113H122V144H72V113ZM184 133H134V163H184V133Z"/>
</mask>
<path d="M184 93H185V92H184V93ZM134 93V92H133V93H134ZM184 123V124H185V123H184ZM134 123H133V124H134V123ZM122 113H123V112H122V113ZM72 113V112H71V113H72ZM122 144V145H123V144H122ZM72 144H71V145H72V144ZM134 133V132H133V133H134ZM184 133H185V132H184V133ZM134 163H133V164H134V163ZM184 163V164H185V163H184ZM184 92H134V94H184V92ZM185 123V93H183V123H185ZM134 124H184V122H134V124ZM133 93V123H135V93H133ZM122 112H72V114H122V112ZM123 144V113H121V144H123ZM72 145H122V143H72V145ZM71 113V144H73V113H71ZM134 134H184V132H134V134ZM135 163V133H133V163H135ZM184 162H134V164H184V162ZM183 133V163H185V133H183Z" fill="black" mask="url(#path-7-inside-1)"/>
<mask id="mask0" mask-type="alpha" maskUnits="userSpaceOnUse" x="72" y="93" width="112" height="70">
<path fill-rule="evenodd" clip-rule="evenodd" d="M134 93H184V123H134V93ZM72 113H122V144H72V113ZM184 133H134V163H184V133Z" fill="#C4C4C4"/>
</mask>
<g mask="url(#mask0)">
<path d="M80 87.5V168" stroke="black"/>
<path d="M92 87.5V168" stroke="black"/>
<path d="M104 87.5V168" stroke="black"/>
<path d="M116 87.5V168" stroke="black"/>
<path d="M128 87.5V168" stroke="black"/>
<path d="M140 87.5V168" stroke="black"/>
<path d="M152 87.5V168" stroke="black"/>
<path d="M164 87.5V168" stroke="black"/>
<path d="M176 87.5V168" stroke="black"/>
<path d="M68 104.5H188.5" stroke="black"/>
<path d="M68 116.5H188.5" stroke="black"/>
<path d="M68 128.5H188.5" stroke="black"/>
<path d="M68 140.5H188.5" stroke="black"/>
<path d="M68 152.5H188.5" stroke="black"/>
</g>
<path d="M9.5 128.5L72.5 113.5" stroke="black" stroke-dasharray="2 2"/>
<path d="M134.5 93.5L151.5 48.5M183.5 122.5L246.5 107.5M104.5 187.5L121.5 143.5M134.5 162.5L151.5 207.5" stroke="black" stroke-dasharray="2 2"/>
<path d="M183.5 133.5L246.5 148.5" stroke="black" stroke-dasharray="2 2"/>
<circle cx="116" cy="128.5" r="3" fill="#3FC4FF" stroke="black"/>
<circle cx="152" cy="116.5" r="3" fill="#2979FF" stroke="black"/>
<circle cx="140" cy="152.5" r="3" fill="#3740FF" stroke="black"/>
<circle cx="176" cy="140.5" r="3" fill="#3740FF" stroke="black"/>
<rect x="9.5" y="128.5" width="95" height="59" fill="white" stroke="black"/>
<path fill-rule="evenodd" clip-rule="evenodd" d="M57 178C68.0457 178 77 169.046 77 158C77 146.954 68.0457 138 57 138C45.9543 138 37 146.954 37 158C37 169.046 45.9543 178 57 178ZM52 166.66L67 158L52 149.34V166.66Z" fill="#3FC4FF"/>
<path d="M67 158L67.25 158.433L68 158L67.25 157.567L67 158ZM52 166.66H51.5V167.526L52.25 167.093L52 166.66ZM52 149.34L52.25 148.907L51.5 148.474V149.34H52ZM76.5 158C76.5 168.77 67.7696 177.5 57 177.5V178.5C68.3218 178.5 77.5 169.322 77.5 158H76.5ZM57 138.5C67.7696 138.5 76.5 147.23 76.5 158H77.5C77.5 146.678 68.3218 137.5 57 137.5V138.5ZM37.5 158C37.5 147.23 46.2304 138.5 57 138.5V137.5C45.6782 137.5 36.5 146.678 36.5 158H37.5ZM57 177.5C46.2304 177.5 37.5 168.77 37.5 158H36.5C36.5 169.322 45.6782 178.5 57 178.5V177.5ZM66.75 157.567L51.75 166.227L52.25 167.093L67.25 158.433L66.75 157.567ZM51.75 149.773L66.75 158.433L67.25 157.567L52.25 148.907L51.75 149.773ZM52.5 166.66V149.34H51.5V166.66H52.5Z" fill="black"/>
<rect x="151.5" y="48.5" width="95" height="59" fill="white" stroke="black"/>
<circle cx="183" cy="91" r="5.5" fill="#2979FF" stroke="black"/>
<circle cx="207" cy="85" r="5.5" fill="#2979FF" stroke="black"/>
<path d="M188.5 71.3658V65.3942L212.5 59.6342V65.6058L188.5 71.3658Z" fill="#2979FF" stroke="black"/>
<path d="M188.5 67V91" stroke="black"/>
<path d="M212.5 61V85" stroke="black"/>
<rect x="151.5" y="148.5" width="95" height="59" fill="white" stroke="black"/>
<path d="M192.072 174L199 162L205.928 174H192.072Z" fill="#3FC4FF" stroke="black"/>
<circle cx="189" cy="186" r="7.5" fill="#2979FF" stroke="black"/>
<rect x="202.5" y="179" width="14" height="14" fill="#3740FF" stroke="black"/>
</svg>

<svg width="256" height="256" fill="none" xmlns="http://www.w3.org/2000/svg"><path fill-rule="evenodd" clip-rule="evenodd" d="M32 72a4 4 0 014-4h184a4 4 0 014 4v10H32V72z" fill="#fff" stroke="#000"/><circle cx="40" cy="75" r="2.5" fill="#3740FF" stroke="#000"/><circle cx="50" cy="75" r="2.5" fill="#2979FF" stroke="#000"/><circle cx="60" cy="75" r="2.5" fill="#3FC4FF" stroke="#000"/><path d="M224 188V82H32v106" stroke="#000"/><mask id="a" fill="#fff"><path fill-rule="evenodd" clip-rule="evenodd" d="M134 93h50v30h-50V93zm-62 20h50v31H72v-31zm112 20h-50v30h50v-30z"/></mask><path d="M184 93h1v-1h-1v1zm-50 0v-1h-1v1h1zm50 30v1h1v-1h-1zm-50 0h-1v1h1v-1zm-12-10h1v-1h-1v1zm-50 0v-1h-1v1h1zm50 31v1h1v-1h-1zm-50 0h-1v1h1v-1zm62-11v-1h-1v1h1zm50 0h1v-1h-1v1zm-50 30h-1v1h1v-1zm50 0v1h1v-1h-1zm0-71h-50v2h50v-2zm1 31V93h-2v30h2zm-51 1h50v-2h-50v2zm-1-31v30h2V93h-2zm-11 19H72v2h50v-2zm1 32v-31h-2v31h2zm-51 1h50v-2H72v2zm-1-32v31h2v-31h-2zm63 21h50v-2h-50v2zm1 29v-30h-2v30h2zm49-1h-50v2h50v-2zm-1-29v30h2v-30h-2z" fill="#000" mask="url(#a)"/><mask id="b" maskUnits="userSpaceOnUse" x="72" y="93" width="112" height="70"><path fill-rule="evenodd" clip-rule="evenodd" d="M134 93h50v30h-50V93zm-62 20h50v31H72v-31zm112 20h-50v30h50v-30z" fill="#C4C4C4"/></mask><g mask="url(#b)" stroke="#000"><path d="M80 87.5V168M92 87.5V168M104 87.5V168M116 87.5V168M128 87.5V168M140 87.5V168M152 87.5V168M164 87.5V168M176 87.5V168M68 104.5h120.5M68 116.5h120.5M68 128.5h120.5M68 140.5h120.5M68 152.5h120.5"/></g><path d="M9.5 128.5l63-15M134.5 93.5l17-45m32 74l63-15m-142 80l17-44m13 19l17 45M183.5 133.5l63 15" stroke="#000" stroke-dasharray="2 2"/><circle cx="116" cy="128.5" r="3" fill="#3FC4FF" stroke="#000"/><circle cx="152" cy="116.5" r="3" fill="#2979FF" stroke="#000"/><circle cx="140" cy="152.5" r="3" fill="#3740FF" stroke="#000"/><circle cx="176" cy="140.5" r="3" fill="#3740FF" stroke="#000"/><path fill="#fff" stroke="#000" d="M9.5 128.5h95v59h-95z"/><path fill-rule="evenodd" clip-rule="evenodd" d="M57 178c11.046 0 20-8.954 20-20s-8.954-20-20-20-20 8.954-20 20 8.954 20 20 20zm-5-11.34L67 158l-15-8.66v17.32z" fill="#3FC4FF"/><path d="M67 158l.25.433L68 158l-.75-.433L67 158zm-15 8.66h-.5v.866l.75-.433-.25-.433zm0-17.32l.25-.433-.75-.433v.866h.5zM76.5 158c0 10.77-8.73 19.5-19.5 19.5v1c11.322 0 20.5-9.178 20.5-20.5h-1zM57 138.5c10.77 0 19.5 8.73 19.5 19.5h1c0-11.322-9.178-20.5-20.5-20.5v1zM37.5 158c0-10.77 8.73-19.5 19.5-19.5v-1c-11.322 0-20.5 9.178-20.5 20.5h1zM57 177.5c-10.77 0-19.5-8.73-19.5-19.5h-1c0 11.322 9.178 20.5 20.5 20.5v-1zm9.75-19.933l-15 8.66.5.866 15-8.66-.5-.866zm-15-7.794l15 8.66.5-.866-15-8.66-.5.866zm.75 16.887v-17.32h-1v17.32h1z" fill="#000"/><path fill="#fff" stroke="#000" d="M151.5 48.5h95v59h-95z"/><circle cx="183" cy="91" r="5.5" fill="#2979FF" stroke="#000"/><circle cx="207" cy="85" r="5.5" fill="#2979FF" stroke="#000"/><path d="M188.5 71.366v-5.972l24-5.76v5.972l-24 5.76z" fill="#2979FF" stroke="#000"/><path d="M188.5 67v24M212.5 61v24" stroke="#000"/><path fill="#fff" stroke="#000" d="M151.5 148.5h95v59h-95z"/><path d="M192.072 174L199 162l6.928 12h-13.856z" fill="#3FC4FF" stroke="#000"/><circle cx="189" cy="186" r="7.5" fill="#2979FF" stroke="#000"/><path fill="#3740FF" stroke="#000" d="M202.5 179h14v14h-14z"/></svg>
